X:1
T:Title
%%score { ( 1 4 ) | ( 2 3 ) }
L:1/8
M:9/8
K:Ab
V:1 treble nm="Grand Piano"
V:4 treble 
V:2 bass 
V:3 bass 
V:1
 z3 z2[Q:1/4=100] E EFG | A3 [Ec]2 E F[Fd][Fd] | [Fd]3- [Fd]2 F FBc | d3 G2 F [CE]cc | %4
 c3- c2 c ccc | d3 B2 [EB] [Ee][Ee][Ed] | [Ec]3- [Ec]2 E F[FA][=EB] | [Ec]3 [Ee]3- [Ee]2 [Fd] | %8
[M:1/8] c- | c | B | E- | E | B | [CA]- | [CA]- | [CA]- | [CA]- | [CA] | c |[M:6/4] e3 c3 A3 .F3 | %21
 .G3 .E3 G6 | d3 B3 G3 .F3 | z C .F2 Dd c-[Ac-][Ac-][EAc-][EAc][Ac] | .=A6 .d6 | .d6 c6 | %26
[M:13/8] F[FA]3/2[=EB][_Ec][Ee]3/2[=Ed] c2 B _E2 B |[M:4/4] A8 |] %28
V:2
 z3 z2 E, E,F,G, | A,3 [A,,A,]2 [C,A,] [D,A,D][D,A,][D,A,] | [D,A,]3- [D,A,]2 F, F,B,C | %3
 D3 [E,B,D]2 [E,G,D] [A,,A,][K:treble][A,E][A,E] | [A,E]3- [A,E]2 [A,E] [F,=A,F][F,A,F][F,A,F] | %5
 [B,F]3[K:bass] [E,G,E]2 [D,G,] [C,A,][C,A,][B,,G,] | %6
 [A,,A,]3- [A,,A,]2 [C,A,] [D,A,D][D,A,][D,A,] | [A,,A,]3 [C,A,]3- [C,A,]2 [D,A,] |[M:1/8] [A,E]- | %9
 [A,E] | z | [E,G,D]- | [E,G,D] | [E,G,D] | [A,,A,]- | [A,,A,]- | [A,,A,]- | [A,,A,]- | [A,,A,] | %19
 z |[M:6/4] z[K:treble] [EA] .[EA]2[K:bass] EE z A, .A,2 A,[A,C] | %21
 z G, .[F,D]2 G,[G,B,] z B, .B,2 .B,2 | z E .E2 B,B, z B, .B,2 G,[G,B,] | %23
 z A, .[A,C]2 G,[EG] z EE [_G,,_G,]2 [G,E] | .C6 .B,6 | .B,6 .A,6 | %26
[M:13/8] z z z z z z2 [A,E]2 z z z2 |[M:4/4] z G,F,E,- E,4 |] %28
V:3
 x9 | x9 | x9 | x7[K:treble] x2 | x9 | x3[K:bass] x6 | x9 | x9 |[M:1/8] E,- | E,- | [E,G,D] | x | %12
 x | x | x | x | x | x | x | x |[M:6/4] [A,,A,]3[K:treble][K:bass] [E,,E,]3 [C,,C,]3 [A,,,A,,]3 | %21
 [B,,,B,,]3 [E,,E,]3 [D,,D,]3 .[B,,,B,,]3 | [B,,B,]3 [G,,G,]3 [E,,E,]3 [D,,D,]3 | %23
 [C,,C,]3 [B,,,B,,]3 .[A,,,A,,]6 | F,F,F,F,[F,B,F][F,=A,F] B,,B,,B,, B,,2 F, | %25
 E,E,E,E,[E,A,E][E,G,E] A,,A,,A,, [A,,A,]2 [C,A,] | %26
[M:13/8] [D,A,D][D,A,]3/2[D,A,][A,,A,][C,A,]3/2[D,A,] E,2- [E,G,D] [E,G,D]2 [E,G,D] | %27
[M:4/4] A,,8 |] %28
V:4
 x9 | x9 | x9 | x9 | x9 | x9 | x9 | x9 |[M:1/8] x | x | x | x | x | x | x | x | x | x | x | x | %20
[M:6/4] z c .c2 AA z E .E2 CA | z D .F2 B,F z EE[B,E]EE | z G .G2 EE z D .D2 B,G | .E3 .E3 .[EA]6 | %24
 e-[=Ae-][Ae-][Fe]dc FFF [B,DF]2 F | GGGGcB EEE E2 E |[M:13/8] x13 |[M:4/4] [A,C]EDC- C4 |] %28

